/* XPM */
static char *_c2020dde4e04bc3b964b740a64044b7wtkr4yBcEoK8hI5e[] = {
/* columns rows colors chars-per-pixel */
"64 64 229 2 ",
"   c #371D0E",
".  c #361F11",
"X  c #392212",
"o  c #45240F",
"O  c #432512",
"+  c #4D2B15",
"@  c #552F1A",
"#  c #56321C",
"$  c #5A351B",
"%  c #4B321C",
"&  c #643716",
"*  c #653917",
"=  c #663A1A",
"-  c #6A3E1C",
";  c #62361B",
":  c #763D1F",
">  c #5E3922",
",  c #543A23",
"<  c #643C24",
"1  c #6A3D23",
"2  c #673F29",
"3  c #733C21",
"4  c #6C411E",
"5  c #66411C",
"6  c #72421E",
"7  c #75481E",
"8  c #5A4026",
"9  c #654423",
"0  c #6C4423",
"q  c #6D4924",
"w  c #65412A",
"e  c #6B452C",
"r  c #664A2C",
"t  c #734423",
"y  c #7A4622",
"u  c #754A24",
"i  c #7B4B25",
"p  c #71442B",
"a  c #7A4B2B",
"s  c #77482A",
"d  c #7C592E",
"f  c #78542C",
"g  c #6D4831",
"h  c #764B32",
"j  c #775A35",
"k  c #685432",
"l  c #7B663D",
"z  c #7C6A43",
"x  c #746C42",
"c  c #7E744C",
"v  c #61705B",
"b  c #8A3D1F",
"n  c #803C20",
"m  c #94591F",
"M  c #884B1F",
"N  c #9C691C",
"B  c #824B26",
"V  c #894D2A",
"C  c #854927",
"Z  c #994A21",
"A  c #845227",
"S  c #8C5324",
"D  c #84522B",
"F  c #8B522B",
"G  c #845A2E",
"H  c #8C5B2B",
"J  c #8E5B24",
"K  c #925524",
"L  c #945921",
"P  c #9C5B24",
"I  c #94562B",
"U  c #9C5B2A",
"Y  c #9A5529",
"T  c #8B4E35",
"R  c #855533",
"E  c #8A5532",
"W  c #8B5B33",
"Q  c #8B5939",
"!  c #845B32",
"~  c #945C37",
"^  c #A15F29",
"/  c #A75E25",
"(  c #986329",
")  c #89663A",
"_  c #916333",
"`  c #936B3A",
"'  c #93643B",
"]  c #8C7739",
"[  c #957A3A",
"{  c #98752B",
"}  c #A36424",
"|  c #AC6D25",
" . c #A4622A",
".. c #AB682A",
"X. c #AB7B29",
"o. c #B4722B",
"O. c #B77827",
"+. c #A86732",
"@. c #B26D32",
"#. c #B47134",
"$. c #BB7936",
"%. c #AA7734",
"&. c #C07C32",
"*. c #C16C29",
"=. c #815244",
"-. c #826C42",
";. c #896E43",
":. c #856D49",
">. c #946A44",
",. c #857748",
"<. c #977546",
"1. c #8A7C58",
"2. c #987958",
"3. c #A47A44",
"4. c #BC7E42",
"5. c #A37753",
"6. c #977963",
"7. c #A67063",
"8. c #79815C",
"9. c #5D8E78",
"0. c #739978",
"q. c #9B813B",
"w. c #B3862C",
"e. c #A28233",
"r. c #A98638",
"t. c #B98636",
"y. c #B7923D",
"u. c #AB822B",
"i. c #C18234",
"p. c #C2853C",
"a. c #C68B39",
"s. c #C99033",
"d. c #8F8049",
"f. c #988549",
"g. c #8E8151",
"h. c #948554",
"j. c #9A8857",
"k. c #A58A43",
"l. c #A58C49",
"z. c #BA8C46",
"x. c #A7914E",
"c. c #B89549",
"v. c #A58955",
"b. c #A3925D",
"n. c #AD995C",
"m. c #AA9657",
"M. c #B29C5C",
"N. c #B59C56",
"B. c #B6A15D",
"V. c #BCA35C",
"C. c #BEA157",
"Z. c #8E8565",
"A. c #9E8B63",
"S. c #899468",
"D. c #9F9363",
"F. c #9A8F72",
"G. c #A68569",
"H. c #A79766",
"J. c #B29466",
"K. c #AA9777",
"L. c #B28F77",
"P. c #BCA564",
"I. c #BAA66A",
"U. c #B8A766",
"Y. c #B7A878",
"T. c #AEA072",
"R. c #C78944",
"E. c #C79545",
"W. c #D3A955",
"Q. c #E0A545",
"!. c #C89E63",
"~. c #C5AC6A",
"^. c #C7AA63",
"/. c #CAB26A",
"(. c #D7B76C",
"). c #C6AB77",
"_. c #C9B576",
"`. c #D7BB77",
"'. c #D5AB63",
"]. c #E4B96F",
"[. c #DEC77F",
"{. c #F7CC75",
"}. c #7BB6A6",
"|. c #24E7DC",
" X c #62FDFC",
".X c #4DE8E5",
"XX c #A78A81",
"oX c #AA9E82",
"OX c #B59889",
"+X c #B7A985",
"@X c #B4AA98",
"#X c #BFB693",
"$X c #B1A986",
"%X c #BEBAA5",
"&X c #C3A688",
"*X c #C7B588",
"=X c #C5AA98",
"-X c #C8B998",
";X c #D5BB92",
":X c #C8BBA5",
">X c #C7B4AD",
",X c #DDC79A",
"<X c #E6D29D",
"1X c #E7CA8C",
"2X c #CDC5A4",
"3X c #D6C8A6",
"4X c #C8C4B3",
"5X c #D6C7BA",
"6X c #E5D4A9",
"7X c #E5D9B6",
"8X c #87F7F5",
"9X c #DBD5CA",
"0X c #D7D6CF",
"qX c #E3D8C6",
"wX c #E5DCD4",
"eX c #F4E8C9",
"rX c #EBE5DD",
"tX c #E7E4DA",
"yX c #F4ECD0",
"uX c #DBFEFE",
"iX c #D1F0EE",
"pX c #ECE8E3",
"aX c #F2EBE4",
"sX c #F4F2ED",
"dX c #F6F3E7",
"fX c #FAF9F5",
"gX c #FFFFFF",
"hX c #F4F3F1",
"jX c #E9F9F5",
/* pixels */
"gXgXgXgXgXgXgXgXgXgXgXgXgXgXgXgXgXgXgXgXgXgXgXgXgXgXgXgXgXgXgXgXgXgXgXgXgXgXgXgXgXgXgXgXgXgXgXgXgXgXgXgXgXgXgXgXgXgXgXgXgXgXgXgX",
"gXgXgXgXgXgXgXgXgXgXgXgXgXgXgXgXgXgXgXgXgXgXgXgXgXgXgXgXgXgXgXgXgXgXgXgXgXgXgXgXgXgXgXgXgXgXgXgXgXgXgXgXgXgXgXgXgXgXgXgXgXgXgXgX",
"gXgXgXgXgXgXgXgXgXgXgXgXgXgXgXgXgXgXgXgXgXgXgXgXgXgXgXgXgXgXgXgXgXgXgXgXgXgXgXgXgXgXgXgXgXgXgXgXgXgXgXgXgXgXgXgXgXgXgXgXgXgXgXgX",
"gXgXgXgXgXgXgXgXgXgXgXgXgXgXgXgXgXgXgXgXgXgXgXgXgXgXgXgXgXgXgXgXgXgXgXgXgXgXgXgXgXgXgXgXgXgXgXgXgXgXgXgXgXgXgXgXgXgXgXgXgXgXgXgX",
"gXgXgXgXgXgXgXgXgXgXgXgXgXgXgXgXgXgXgXgXgXgXgXgXgXgXgXgXgXgXgXgXgXgXgXgXgXgXgXgXgXgXgXgXgXgXgXgXgXgXgXgXgXgXgXgXgXgXgXgXgXgXgXgX",
"gXgXgXgXgXgXgXgXgXgXgXgXgXgXgXgXgXgXgXgXgXgXgXgXgXgXgXgXgXgXgXgXgXgXgXgXgXgXgXgXgXgXgXgXgXgXgXgXgXgXgXgXgXgXgXgXgXgXgXgXgXgXgXgX",
"gXgXgXgXgXgXgXgXgXgXgXgXgXgXgXgXgXgXgXgXgXgXgXgXgXgXgXgXgXgXgXgXgXgXgXgXgXgXgXgXgXgXgXgXgXgXgXgXgXgXgXgXgXgXgXgXgXgXgXgXgXgXgXgX",
"gXgXgXgXgXgXgXgXgXgXgXgXgXgXgXgXgXgXgXgXgXgXgXgXgXgXgXgXgXgXgXgXgXgXgXgXgXgXgXgXgXgXgXgXgXgXgXgXgXgXgXgXgXgXgXgXgXgXgXgXgXgXgXgX",
"gXgXgXgXgXgXgXgXgXgXgXgXgXgXgXgXgXgXgXgXgXgXgXgXgXgXgXgXfXgXgXgXgXgXgXgXgXgXgXgXgXgXgXgXgXgXgXgXgXgXgXgXgXgXgXgXgXgXgXgXgXgXgXgX",
"gXgXgXgXgXgXgXgXgXgXgXgXgXgXgXgXgXgXgXgXgXgXgXgXgXgXsXpXgXgXgXgXgXgXgXgXfXgXgXgXhXgXgXgXgXgXgXgXgXgXgXgXgXgXgXgXgXgXgXgXgXgXgXgX",
"gXgXgXgXgXgXgXgXgXgXgXgXgXgXgXgXgXgXgXgXgXgXfXgXgXfX=XL.OX6.&X=X5XrXfXgXgXgXsX>XwXgXgXgXgXgXgXgXgXgXgXgXgXgXgXgXgXgXgXgXgXgXgXgX",
"gXgXgXgXgXgXgXgXgXgXgXgXgXgXgXgXgXgXgXgXgXgXgXsX=X2.=.n 3 / >.>.b T >.G.jX0XXX5X0X>XfXuXgXgXgXgXgXgXgXgXgXgXgXgXgXgXgXgXgXgXgXgX",
"gXgXgXgXgXgXgXgXgXgXgXgXgXgXgXgXgXgXgXgXgXgX>X2.T ~ T 3 C :.0.9.b ~ n <.0.}.7.=X=.XXuX8XjXgXgXgXgXgXgXgXgXgXgXgXgXgXgXgXgXgXgXgX",
"gXgXgXgXgXgXgXgXgXgXgXgXgXgXgXgXgXgXgXgXfXOXR ~ Q ~ C ~ Z v |.v Z +.Z S.|.c T 6.5XOX.X XgXgXgXgXgXgXgXgXgXgXgXgXgXgXgXgXgXgXgXgX",
"gXgXgXgXgXgXgXgXgXgXgXgXgXgXgXgXgXgXgXgXL.R Q E T I C T U I 8. .+...@.@.S.#.3.7.fXaXiXuXgXgXgXgXgXgXgXgXgXgXgXgXgXgXgXgXgXgXgXgX",
"gXgXgXgXgXgXgXgXgXgXgXgXgXgXgXgXgXgXgXOXh Q E F I V C Y U / / +.@.@.@.@.*.$.&.4.=XgXgXgXgXgXgXgXgXgXgXgXgXgXgXgXgXgXgXgXgXgXgXgX",
"gXgXgXgXgXgXgXgXgXgXgXgXgXgXgXgXgXgXqXQ Q E E V V V ^ U U  .+.+.+.@.#.#.$.$.&.p.R.qXgXgXgXgXgXgXgXgXgXgXgXgXgXgXgXgXgXgXgXgXgXgX",
"gXgXgXgXgXgXgXgXgXgXgXgXgXgXgXgXgXfX6.h R E V F K K Y ^ ^ ^ ....4.4.*.4.4.&.&.i.R.^.hXgXgXgXgXgXgXgXgXgXgXgXgXgXgXgXgXgXgXgXgXgX",
"gXgXgXgXgXgXgXgXgXgXgXgXgXgXgXgXgX9XD R R D F V K Y Y ^ ^ ^  .@.+.@.&.R.R.p.i.i.R.c.7XgXgXfXgXgXgXgXgXgXgXgXgXgXgXgXgXgXgXgXgXgX",
"gXgXgXgXgXgXgXgXgXgXgXgXgXgXgXgXgXL.R R E F V F K K P ^  . .} ..@.@.#.*.a.R.&.i.E.z.).9XhXgXgXgXgXgXgXgXgXgXgXgXgXgXgXgXgXgXgXgX",
"gXgXgXgXgXgXgXgXgXgXgXgXgXgXgXgXsX<.! E E F V S K L P P } } / | @.o.o.o.$.E.i.t.z.z.M.B ~ =XgXgXgXgXgXgXgXgXgXgXgXgXgXgXgXgXgXgX",
"gXgXgXgXgXgXgXgXgXgXgXgXgXgXfXgXwX>._ R G D B S M K m P / } | } ..$.$.&.R.E.t.y.J./.).a C n G.gXgXgXgXgXgXgXgXgXgXgXgXgXgXgXgXgX",
"gXgXgXgXgXgXgXgXgXgXgXgXgXgXgXgX:X>.' ! ! F S S S m m P } } } | o.R.&.t.t.R.r.r.c.(.).y B C C G.fXgXgXgXgXgXgXgXgXgXgXgXgXgXgXgX",
"gXgXgXgXgXgXgXgXgXgXgXgXgXgXgXdX).3.>._ ~ ! H J m m m m } | O.O.$.i.O.O.X.%.y.c.'.[.J.: B C V B &XgXgXgXgXgXgXgXgXgXgXgXgXgXgXgX",
"gXgXgXgXgXgXgXgXgXgXgXgXgXgXgX7X;X3.3.3.' ( ( H J L L ( } O.O.O.s.s.s.s.y.c.c.W.~._.[ : i B V F ~ rXgXgXgXgXgXgXgXgXgXgXgXgXgXgX",
"gXgXgXgXgXgXgXgXgXgXgXgXgXgXgX6X<X).3.%.[ ` _ H H J m m m | O.i.Q.{.].a.y.y.c.V.V.P.R : y y C F B L.gXgXgXgXgXgXgXgXgXgXgXgXgXgX",
"gXgXgXgXgXgXgXgXgXgXgXgXgXgXgX7X<X7X,X*X).-X).&X;X-X,X*X).^.'.].1X^.k.r.r.c.V.C.(.<.1 y y C y V S 5.fXgXgXgXgXgXgXgXgXgXgXgXgXgX",
"gXgXgXgXgXgXgXgXgXgXgXgXgXgXgX7X'.`.`.(.6X3X7XeXyXyXeX1X].W.W.W.y.N { k.V./.B._.v.2 3 3 y y y C F ' rXgXgXgXgXgXgXgXgXgXgXgXgXgX",
"gXgXgXgXgXgXgXgXgXgXgXgXgXgXgXrXJ.V.P.^.U.~.P.*X*X*X~.E.s.s.w.w.u.e.q.N.B.l.B.j.< 1 3 3 y n 7 B D ~ qXgXfXgXgXgXgXgXgXgXgXgXgXgX",
"gXgXgXgXgXgXgXgXgXgXgXgXgXgXgXgXY.M.I.B.n.P.B.N.).*Xm.E.y.w.u.e.r.{ c.x.q.b.f.$ ; p 2 t 6 7 7 B B _ qXgXgXgXgXgXgXgXgXgXgXgXgXgX",
"gXgXgXgXgXgXgXgXgXgXgXgXgXgXgXgX2Xn.n.n.n.H.m.m.n.x.x.k.r.e.e.e.r.c.n.] x.g.8 $ 1 1 3 3 y y 7 B A ~ rXgXgXgXgXgXgXgXgXgXgXgXgXgX",
"gXgXgXgXgXgXgXgXgXgXgXgXgXgXgXgX3XB.N.l.x.b.b.b.v.f.f.[ f.q.] { q.n.d.D.j + # w 1 1 y 7 y y i B A <.sXgXgXgXgXgXgXgXgXgXgXgXgXgX",
"gXgXgXgXgXgXgXgXgXgXgXgXgXgXgXgXsXU.U./.B.N.x.f.f.q.k.U.m.q.q.f.h.f.j.r X , > 2 1 1 3 6 y y i G J J.gXgXgXgXgXgXgXgXgXgXgXgXgXgX",
"gXgXgXgXgXgXgXgXgXgXgXgXgXgXgXgXgXyXY._._._./.V.m.k.B.U.U.m.h.:.x k % X $ < 2 < 1 - 6 6 y i i H _ 2XgXgXgXgXgXgXgXgXgXgXgXgXgXgX",
"gXgXgXgXgXgXgXgXgXgXgXgXgXgXgXgXgXgXrX+XH.T.U.P.U.B.m.h.d.z , X X   o # > 2 2 1 - - : 7 i B G ` <.rXgXgXgXgXgXgXgXgXgXgXgXgXgXgX",
"gXgXgXgXgXgXgXgXgXgXgXgXgXgXgXgXgXgXgXfXsXZ.5 k l l k k 8 X     O % # > < 1 < - 5 - 6 7 A G _ ` :XgXgXgXgXgXgXgXgXgXgXgXgXgXgXgX",
"gXgXgXgXgXgXgXgXgXgXgXgXgXgXgXgXgXgXfXgXpXq $ + o X X     O + + # > w < < 1 ; 1 - t t u d W ` H.gXgXgXgXgXgXgXgXgXgXgXgXgXgXgXgX",
"gXgXgXgXgXgXgXgXgXgXgXgXgXgXgXgXgXgXgXgXOXt t 1 5 $ $ $ # # > , > g e < ; = - - - - u i W ] <.9XgXgXgXgXgXgXgXgXgXgXgXgXgXgXgXgX",
"gXgXgXgXgXgXgXgXgXgXgXgXgXgXgXgXgXgXgXfX>.B a t 0 < 5 0 e 2 2 e e g 1 = = ; = : 4 7 u D ) <.-XgXgXgXgXgXgXgXgXgXgXgXgXgXgXgXgXgX",
"gXgXgXgXgXgXgXgXgXgXgXgXgXgXgXgXgXgXgX9X! F B i t u h h g e g g g < = ; & * = 4 6 u f ) ] #XeXfXgXgXgXgXgXgXgXgXgXgXgXgXgXgXgXgX",
"gXgXgXgXgXgXgXgXgXgXgXgXgXgXgXgXgXfXgX&XA F D B s a h h h h g 1 1 = ; * * * - 4 u i d ] $X2X2XfXgXgXgXgXgXgXgXgXgXgXgXgXgXgXgXgX",
"gXgXgXgXgXgXgXgXgXgXgXgXgXgXgXgXgXgXgXG.B D B i B a R h h p 1 - = ; & & * = - 7 i d ) K.2XF.9XgXgXgXgXgXgXgXgXgXgXgXgXgXgXgXgXgX",
"gXgXgXgXgXgXgXgXgXgXgXgXgXgXgXgXgXgXaX' F G B y u y a s p 1 = & & & & & * - 4 7 d G A.#XD.:XgXgXgXgXgXgXgXgXgXgXgXgXgXgXgXgXgXgX",
"gXgXgXgXgXgXgXgXgXgXgXgXgXgXgXgXgXgX5XH F A i y u a s t 1 - = & & & & & * 4 t f d 1.#XD.H.hXgXgXgXgXgXgXgXgXgXgXgXgXgXgXgXgXgXgX",
"gXgXgXgXgXgXgXgXgXgXgXgXgXgXgXgXgXgX-XH H i y y y a p 4 * * * * * & & * 5 0 u d ] +XT.j.tXgXgXgXgXgXgXgXgXgXgXgXgXgXgXgXgXgXgXgX",
"gXgXgXgXgXgXgXgXgXgXgXgXgXgXgXgXgXgX=XH E u t 7 t t 4 4 5 * * * * & & - 0 u j ) K.H.f.4XgXgXgXgXgXgXgXgXgXgXgXgXgXgXgXgXgXgXgXgX",
"gXgXgXgXgXgXgXgXgXgXgXgXgXgXgXgXgXgX3X) F 7 7 t 6 4 - - * - = = * = 5 0 f f ) D.D.] +XgXgXgXgXgXgXgXgXgXgXgXgXgXgXgXgXgXgXgXgXgX",
"gXgXgXgXgXgXgXgXgXgXgXgXgXgXgXgXfXgXwX` R u t 3 6 * 4 4 * * = = = 5 q f f z A.D.,.d.rXgXgXgXgXgXgXgXgXgXgXgXgXgXgXgXgXgXgXgXgXgX",
"gXgXgXgXgXgXgXgXgXgXgXgXgXgXgXgXgXgXgXY.D u 7 0 - - 4 - = = = = 5 q f j c D.D.d.l #XgXgXgXgXgXgXgXgXgXgXgXgXgXgXgXgXgXgXgXgXgXgX",
"gXgXgXgXgXgXgXgXgXgXgXgXgXgXgXgXgXgXgX5XG a u 0 4 4 - - - 4 5 q 0 q f ,.g.h.g.d.$XgXgXgXgXgXgXgXgXgXgXgXgXgXgXgXgXgXgXgXgXgXgXgX",
"gXgXgXgXgXgXgXgXgXgXgXgXgXgXgXgXgXgXgXgX2.u f 4 4 4 4 < 0 < 5 9 j 2.b.f.g.g.,.$XgXgXgXgXgXgXgXgXgXgXgXgXgXgXgXgXgXgXgXgXgXgXgXgX",
"gXgXgXgXgXgXgXgXgXgXgXgXgXgXgXgXgXgXfXgX-Xu f q q 0 0 9 9 j A.$X-X2X+Xh.h.g.$XgXgXgXgXgXgXgXgXgXgXgXgXgXgXgXgXgXgXgXgXgXgXgXgXgX",
"gXgXgXgXgXgXgXgXgXgXgXgXgXgXgXgXgXgXgXgXgXoXf f r q e q K.2X-X-X#Xh.h.j.g.@XgXgXgXgXgXgXgXgXgXgXgXgXgXgXgXgXgXgXgXgXgXgXgXgXgXgX",
"gXgXgXgXgXgXgXgXgXgXgXgXgXgXgXgXgXgXgXgXgXfX1.l j l ;.j.+X1.z :.c c c g.4XgXgXgXgXgXgXgXgXgXgXgXgXgXgXgXgXgXgXgXgXgXgXgXgXgXgXgX",
"gXgXgXgXgXgXgXgXgXgXgXgXgXgXgXgXgXgXgXgXgXgX9Xz l ) ;.;.f f z ,.c c S.0XgXgXgXgXgXgXgXgXgXgXgXgXgXgXgXgXgXgXgXgXgXgXgXgXgXgXgXgX",
"gXgXgXgXgXgXgXgXgXgXgXgXgXgXgXgXgXgXgXgXgXgXgX0XZ.l j j l z z x c @XhXgXfXgXgXgXgXgXgXgXgXgXgXgXgXgXgXgXgXgXgXgXgXgXgXgXgXgXgXgX",
"gXgXgXgXgXgXgXgXgXgXgXgXgXgXgXgXgXgXgXgXgXgXgXgXfX>XF.c x 1.oX%XtXgXgXfXgXgXgXgXgXgXgXgXgXgXgXgXgXgXgXgXgXgXgXgXgXgXgXgXgXgXgXgX",
"gXgXgXgXgXgXgXgXgXgXgXgXgXgXgXgXgXgXgXgXgXgXgXgXgXgXgXtX9XjXgXgXgXgXgXgXgXgXgXgXgXgXgXgXgXgXgXgXgXgXgXgXgXgXgXgXgXgXgXgXgXgXgXgX",
"gXgXgXgXgXgXgXgXgXgXgXgXgXgXgXgXgXgXgXgXgXgXgXgXgXgXgXgXgXgXgXfXgXgXgXgXgXgXgXgXgXgXgXgXgXgXgXgXgXgXgXgXgXgXgXgXgXgXgXgXgXgXgXgX",
"gXgXgXgXgXgXgXgXgXgXgXgXgXgXgXgXgXgXgXgXgXgXgXgXgXgXgXgXgXgXgXgXgXgXgXgXgXgXgXgXgXgXgXgXgXgXgXgXgXgXgXgXgXgXgXgXgXgXgXgXgXgXgXgX",
"gXgXgXgXgXgXgXgXgXgXgXgXgXgXgXgXgXgXgXgXgXgXgXgXgXgXgXgXgXgXgXgXgXgXgXgXgXgXgXgXgXgXgXgXgXgXgXgXgXgXgXgXgXgXgXgXgXgXgXgXgXgXgXgX",
"gXgXgXgXgXgXgXgXgXgXgXgXgXgXgXgXgXgXgXgXgXgXgXgXgXgXgXgXgXgXgXgXgXgXgXgXgXgXgXgXgXgXgXgXgXgXgXgXgXgXgXgXgXgXgXgXgXgXgXgXgXgXgXgX",
"gXgXgXgXgXgXgXgXgXgXgXgXgXgXgXgXgXgXgXgXgXgXgXgXgXgXgXgXgXgXgXgXgXgXgXgXgXgXgXgXgXgXgXgXgXgXgXgXgXgXgXgXgXgXgXgXgXgXgXgXgXgXgXgX",
"gXgXgXgXgXgXgXgXgXgXgXgXgXgXgXgXgXgXgXgXgXgXgXgXgXgXgXgXgXgXgXgXgXgXgXgXgXgXgXgXgXgXgXgXgXgXgXgXgXgXgXgXgXgXgXgXgXgXgXgXgXgXgXgX"
};
