/* XPM */
static char *b7f276a03c2f4908fbd24f52daafad771d6ERbvUWXDPUs4z[] = {
/* columns rows colors chars-per-pixel */
"64 64 256 2 ",
"   c black",
".  c #010101",
"X  c #020202",
"o  c gray1",
"O  c #040404",
"+  c gray2",
"@  c #060606",
"#  c #070707",
"$  c gray3",
"%  c #090909",
"&  c gray4",
"*  c #0B0B0B",
"=  c #0C0C0C",
"-  c gray5",
";  c #0E0E0E",
":  c gray6",
">  c #101010",
",  c #111111",
"<  c gray7",
"1  c #131313",
"2  c gray8",
"3  c #151515",
"4  c #161616",
"5  c gray9",
"6  c #181818",
"7  c #191919",
"8  c gray10",
"9  c #1B1B1B",
"0  c gray11",
"q  c #1D1D1D",
"w  c #1E1E1E",
"e  c gray12",
"r  c #202020",
"t  c gray13",
"y  c #222222",
"u  c #232323",
"i  c gray14",
"p  c #252525",
"a  c gray15",
"s  c #272727",
"d  c #282828",
"f  c gray16",
"g  c #2A2A2A",
"h  c gray17",
"j  c #2C2C2C",
"k  c #2D2D2D",
"l  c gray18",
"z  c #2F2F2F",
"x  c gray19",
"c  c #313131",
"v  c #323232",
"b  c gray20",
"n  c #343434",
"m  c #353535",
"M  c gray21",
"N  c #373737",
"B  c gray22",
"V  c #393939",
"C  c #3A3A3A",
"Z  c gray23",
"A  c #3C3C3C",
"S  c gray24",
"D  c #3E3E3E",
"F  c #3F3F3F",
"G  c gray25",
"H  c #414141",
"J  c gray26",
"K  c #434343",
"L  c #444444",
"P  c gray27",
"I  c #464646",
"U  c gray28",
"Y  c #484848",
"T  c #494949",
"R  c gray29",
"E  c #4B4B4B",
"W  c #4C4C4C",
"Q  c gray30",
"!  c #4E4E4E",
"~  c gray31",
"^  c #505050",
"/  c #515151",
"(  c gray32",
")  c #535353",
"_  c gray33",
"`  c #555555",
"'  c #565656",
"]  c gray34",
"[  c #585858",
"{  c gray35",
"}  c #5A5A5A",
"|  c #5B5B5B",
" . c gray36",
".. c #5D5D5D",
"X. c gray37",
"o. c #5F5F5F",
"O. c #606060",
"+. c gray38",
"@. c #626262",
"#. c gray39",
"$. c #646464",
"%. c #656565",
"&. c gray40",
"*. c #676767",
"=. c #686868",
"-. c DimGray",
";. c #6A6A6A",
":. c gray42",
">. c #6C6C6C",
",. c #6D6D6D",
"<. c gray43",
"1. c #6F6F6F",
"2. c gray44",
"3. c #717171",
"4. c #727272",
"5. c gray45",
"6. c #747474",
"7. c gray46",
"8. c #767676",
"9. c #777777",
"0. c gray47",
"q. c #797979",
"w. c gray48",
"e. c #7B7B7B",
"r. c #7C7C7C",
"t. c gray49",
"y. c #7E7E7E",
"u. c gray50",
"i. c #808080",
"p. c #818181",
"a. c gray51",
"s. c #838383",
"d. c #848484",
"f. c gray52",
"g. c #868686",
"h. c gray53",
"j. c #888888",
"k. c #898989",
"l. c gray54",
"z. c #8B8B8B",
"x. c gray55",
"c. c #8D8D8D",
"v. c #8E8E8E",
"b. c gray56",
"n. c #909090",
"m. c gray57",
"M. c #929292",
"N. c #939393",
"B. c gray58",
"V. c #959595",
"C. c gray59",
"Z. c #979797",
"A. c #989898",
"S. c gray60",
"D. c #9A9A9A",
"F. c #9B9B9B",
"G. c gray61",
"H. c #9D9D9D",
"J. c gray62",
"K. c #9F9F9F",
"L. c #A0A0A0",
"P. c gray63",
"I. c #A2A2A2",
"U. c gray64",
"Y. c #A4A4A4",
"T. c #A5A5A5",
"R. c gray65",
"E. c #A7A7A7",
"W. c gray66",
"Q. c #A9A9A9",
"!. c #AAAAAA",
"~. c gray67",
"^. c #ACACAC",
"/. c gray68",
"(. c #AEAEAE",
"). c #AFAFAF",
"_. c gray69",
"`. c #B1B1B1",
"'. c #B2B2B2",
"]. c gray70",
"[. c #B4B4B4",
"{. c gray71",
"}. c #B6B6B6",
"|. c #B7B7B7",
" X c gray72",
".X c #B9B9B9",
"XX c gray73",
"oX c #BBBBBB",
"OX c #BCBCBC",
"+X c gray74",
"@X c gray",
"#X c gray75",
"$X c #C0C0C0",
"%X c #C1C1C1",
"&X c gray76",
"*X c #C3C3C3",
"=X c gray77",
"-X c #C5C5C5",
";X c #C6C6C6",
":X c gray78",
">X c #C8C8C8",
",X c gray79",
"<X c #CACACA",
"1X c #CBCBCB",
"2X c gray80",
"3X c #CDCDCD",
"4X c #CECECE",
"5X c gray81",
"6X c #D0D0D0",
"7X c gray82",
"8X c #D2D2D2",
"9X c LightGray",
"0X c gray83",
"qX c #D5D5D5",
"wX c gray84",
"eX c #D7D7D7",
"rX c #D8D8D8",
"tX c gray85",
"yX c #DADADA",
"uX c gray86",
"iX c gainsboro",
"pX c #DDDDDD",
"aX c gray87",
"sX c #DFDFDF",
"dX c gray88",
"fX c #E1E1E1",
"gX c #E2E2E2",
"hX c gray89",
"jX c #E4E4E4",
"kX c gray90",
"lX c #E6E6E6",
"zX c #E7E7E7",
"xX c gray91",
"cX c #E9E9E9",
"vX c #EAEAEA",
"bX c gray92",
"nX c #ECECEC",
"mX c gray93",
"MX c #EEEEEE",
"NX c #EFEFEF",
"BX c gray94",
"VX c #F1F1F1",
"CX c gray95",
"ZX c #F3F3F3",
"AX c #F4F4F4",
"SX c gray96",
"DX c #F6F6F6",
"FX c gray97",
"GX c #F8F8F8",
"HX c #F9F9F9",
"JX c gray98",
"KX c #FBFBFB",
"LX c gray99",
"PX c #FDFDFD",
"IX c #FEFEFE",
"UX c white",
/* pixels */
"E.R.T.Y.I.P.P.U.T.E.W.E.R.T.I.K.G.D.D.G.L.I.U.U.P.L.J.H.H.G.G.G.G.H.H.H.G.G.G.G.G.G.H.K.P.I.P.J.D.Z.V.V.C.Z.Z.A.A.C.n.d.0.,.*.$.",
"R.R.T.U.P.L.L.I.Y.R.R.R.T.U.P.J.F.S.S.F.J.P.I.I.L.K.J.H.G.F.F.F.F.F.F.F.F.F.F.F.F.F.G.H.K.L.K.G.S.C.B.B.V.C.C.Z.Z.V.b.s.9.,.*.$.",
"R.R.Y.I.L.J.J.K.P.U.U.U.I.P.K.F.A.C.C.A.G.K.L.K.J.H.G.F.D.D.S.A.Z.Z.Z.Z.Z.A.A.A.A.A.S.D.F.G.F.S.C.B.M.M.N.B.B.V.V.M.x.a.8.,.*.%.",
"R.T.Y.P.J.F.D.F.H.J.K.J.J.H.D.Z.N.n.n.N.Z.D.G.G.F.S.S.A.A.Z.C.B.M.n.n.n.M.N.N.B.B.B.B.B.V.V.B.N.m.n.b.b.n.n.m.m.m.b.k.i.7.,.=.%.",
"T.Y.U.K.F.A.C.C.Z.A.S.S.A.Z.V.m.c.l.l.c.m.V.Z.Z.C.V.V.V.V.B.M.b.z.j.h.j.z.c.v.v.v.v.v.c.c.c.x.x.x.z.x.x.x.x.x.x.x.l.f.t.6.>.=.&.",
"Y.U.P.H.A.B.m.m.m.M.M.M.M.M.n.x.j.f.f.j.x.n.M.M.M.m.m.m.m.m.v.l.f.p.i.a.f.h.k.k.k.k.j.h.g.f.f.g.h.h.j.j.j.j.j.j.h.f.p.q.4.>.=.&.",
"I.P.K.D.V.n.c.x.c.c.c.c.c.c.x.k.g.d.d.g.k.x.c.v.v.v.v.v.b.v.z.h.a.y.t.u.s.g.h.h.h.g.f.d.s.a.a.s.d.f.g.g.f.f.d.s.a.i.t.8.2.:.=.&.",
"K.J.F.Z.m.x.k.j.j.j.k.k.k.j.j.h.g.f.f.g.h.j.k.l.l.z.z.x.x.z.k.g.a.u.u.p.d.h.j.j.h.g.f.d.a.a.a.s.d.f.f.d.s.p.i.u.y.r.q.5.<.-.*.%.",
"G.F.A.N.v.j.f.d.d.f.f.d.d.d.f.g.j.k.k.j.g.f.f.g.h.k.k.l.l.k.j.g.d.a.a.f.j.l.z.l.j.h.f.d.d.s.s.d.f.f.f.s.p.y.t.e.w.0.7.2.>.=.&.$.",
"D.S.C.m.z.f.a.p.p.a.a.a.a.a.d.g.k.z.z.k.g.d.s.s.f.g.h.h.h.h.h.g.f.f.g.j.l.x.c.z.k.h.g.f.f.f.f.g.g.g.f.a.i.t.e.q.9.7.4.<.;.*.%.$.",
"S.A.V.b.k.s.i.u.i.p.p.p.p.a.d.h.l.x.x.k.g.s.a.a.s.f.f.f.f.f.f.f.f.f.g.j.l.x.x.l.j.g.f.f.f.g.g.g.g.g.f.s.p.y.r.q.9.6.3.,.-.&.$.$.",
"F.S.V.b.j.p.y.y.u.p.a.s.d.f.g.j.l.z.z.k.g.s.a.a.a.s.s.s.s.s.s.s.s.d.f.g.j.k.k.h.g.d.d.d.f.g.g.h.g.g.f.f.d.a.u.r.0.6.3.,.-.&.%.$.",
"H.F.Z.n.h.i.t.t.i.a.d.g.j.k.l.l.l.l.k.j.g.d.s.s.a.a.p.p.p.p.p.a.a.a.a.s.d.f.f.d.s.a.a.s.f.g.g.h.g.g.g.h.h.h.d.i.e.8.3.,.;.*.%.$.",
"K.H.A.m.j.i.r.t.i.d.g.j.l.x.x.z.l.j.h.g.g.f.f.s.a.p.p.p.p.p.p.p.p.p.p.p.a.a.a.a.p.p.a.s.d.f.g.g.g.g.h.k.z.z.k.d.y.0.5.<.;.=.&.%.",
"K.H.S.m.j.i.r.t.i.d.g.k.z.x.x.l.j.g.f.f.f.f.f.d.s.s.a.a.a.a.a.a.a.a.a.a.a.a.a.a.a.a.a.s.s.d.f.f.f.g.h.l.c.v.x.g.i.q.6.1.:.=.&.%.",
"K.H.S.m.j.p.t.y.i.s.f.h.j.k.k.j.g.d.s.s.d.d.d.f.f.f.g.g.g.g.g.g.g.g.g.g.f.f.f.g.g.g.f.d.s.a.a.s.d.g.j.z.c.b.c.j.p.e.7.2.:.=.%.$.",
"J.G.A.m.k.a.y.y.i.a.s.d.f.f.f.d.s.a.a.a.a.a.d.f.h.k.l.l.l.l.l.l.l.l.l.l.l.l.l.l.l.l.j.f.a.i.u.i.s.f.j.z.c.b.c.k.s.r.9.3.:.*.%.#.",
"H.F.A.m.l.s.i.u.u.i.p.p.a.a.a.a.p.p.p.i.i.p.a.f.j.z.c.c.c.c.c.c.c.c.c.c.c.c.c.c.c.c.l.g.a.y.t.u.p.f.h.l.c.v.x.j.s.t.9.3.:.*.$.#.",
"G.F.Z.m.l.d.i.u.u.i.i.i.i.i.i.i.p.p.p.i.u.i.p.f.j.x.v.v.v.v.v.c.c.c.c.c.c.c.c.c.c.x.l.g.p.y.t.y.p.d.g.k.z.x.l.h.a.r.9.3.:.*.%.#.",
"G.F.Z.m.l.d.i.u.u.i.i.i.i.i.i.p.a.a.a.i.u.y.i.s.h.z.c.c.c.c.x.x.z.z.l.l.l.l.l.l.k.j.h.d.a.i.u.i.a.s.f.h.j.k.h.d.u.w.7.2.:.=.&.$.",
"G.D.Z.m.l.d.i.u.u.i.i.i.i.i.i.a.s.d.s.p.u.t.y.p.f.j.l.z.z.l.l.k.j.h.g.g.g.g.g.f.d.s.a.a.a.a.a.a.a.s.s.d.f.f.s.i.e.9.5.1.:.=.*.&.",
"G.D.Z.m.l.d.i.u.u.i.i.i.i.i.p.a.d.d.d.p.y.r.r.u.a.f.h.j.j.h.g.f.d.s.a.a.a.a.p.i.u.y.y.u.p.s.d.s.a.p.p.p.a.a.i.t.q.6.3.<.:.-.=.*.",
"F.S.C.n.k.s.u.u.u.i.i.i.i.i.i.p.s.s.a.i.t.e.e.t.i.a.d.d.d.d.s.a.p.i.i.i.i.u.u.t.r.e.e.t.u.p.a.p.i.u.u.u.u.u.y.e.9.6.3.<.:.-.=.*.",
"F.S.V.b.j.a.y.y.u.i.i.i.u.u.u.i.i.i.u.t.e.w.q.e.t.u.i.i.i.i.i.u.u.u.y.y.y.y.t.r.w.q.q.w.e.r.t.r.r.r.r.t.t.y.t.e.0.7.4.1.>.;.=.=.",
"S.A.B.v.h.i.t.t.y.i.i.i.u.y.t.t.t.r.e.w.q.0.0.q.w.e.r.r.r.r.r.r.t.t.t.t.t.t.t.e.w.q.0.9.9.8.8.8.9.0.q.w.r.r.r.e.w.9.7.3.,.;.=.*.",
"C.B.m.z.d.y.e.e.t.y.u.y.t.r.e.w.q.0.9.8.8.8.8.8.9.9.9.9.9.9.0.q.w.e.e.r.r.e.e.w.q.0.8.6.4.3.2.3.4.6.8.9.q.e.e.e.w.0.8.4.,.;.=.*.",
"b.c.l.f.u.q.9.9.q.w.e.w.q.0.9.8.6.5.5.4.4.4.4.4.5.5.5.5.5.5.5.6.8.9.9.0.0.0.9.9.8.7.5.3.1.,.>.,.1.2.4.6.8.9.0.0.0.8.6.2.>.-.*.&.",
"a.p.y.e.8.4.2.2.4.5.5.5.4.3.2.1.<.,.,.,.,.,.,.,.,.,.,.,.<.<.<.1.1.2.2.2.2.3.3.3.2.2.1.,.:.;.-.;.:.>.,.1.2.3.4.4.4.3.1.>.-.*.%.$.",
"6.5.4.2.,.:.;.;.:.:.>.:.:.;.;.-.=.=.=.=.=.=.=.=.=.=.=.-.-.-.;.-.-.-.-.-.-.;.;.:.:.:.:.;.-.=.=.=.=.-.-.;.:.>.>.>.>.:.;.=.&.$.#.#.",
":.:.;.-.=.=.*.*.=.=.=.=.=.*.*.*.*.*.*.*.*.*.*.*.*.*.&.&.&.&.&.&.&.&.&.&.*.*.=.-.-.;.;.;.;.;.-.-.-.-.-.-.;.;.;.;.-.-.=.*.&.%.%.%.",
">.>.>.>.>.>.>.>.>.>.>.>.>.>.>.>.>.,.,.,.,.,.,.,.>.>.:.-.*.%.%.*.-.:.>.,.,.,.,.<.1.2.2.2.1.1.1.1.1.1.1.1.1.1.1.<.<.,.,.,.,.,.,.,.",
"9.9.9.0.0.q.q.q.q.q.q.q.q.q.w.w.e.e.e.e.e.e.e.e.e.q.8.3.:.*.=.>.5.q.r.t.r.e.r.r.t.t.t.r.e.w.q.w.e.e.r.t.t.t.r.e.w.q.0.q.w.e.r.r.",
"g.h.h.j.j.k.k.k.k.k.k.k.k.k.l.z.z.x.c.c.c.c.x.x.x.k.d.e.3.;.:.6.i.l.b.n.b.c.c.c.c.c.x.l.j.g.g.h.k.l.x.c.c.c.c.z.j.h.g.j.l.x.c.c.",
"N.N.B.B.V.C.C.C.C.C.C.C.C.C.C.Z.S.D.D.F.F.D.D.D.S.V.v.a.7.>.<.w.l.S.L.P.K.G.F.F.F.D.A.V.M.n.b.m.N.C.A.S.D.D.S.Z.B.M.M.B.C.S.D.F.",
"Z.Z.Z.A.S.S.D.D.D.D.D.D.S.S.D.F.H.J.K.K.K.K.J.H.G.A.n.s.7.,.1.t.b.K.E.W.R.I.P.L.K.J.G.S.C.B.N.V.Z.S.F.G.H.H.G.D.Z.V.V.Z.D.H.J.K.",
"N.N.N.N.B.B.V.C.Z.Z.Z.C.B.B.B.C.A.D.F.F.F.D.S.A.C.M.l.u.5.:.<.r.b.J.R.E.Y.L.J.H.G.D.S.C.B.M.m.M.N.V.C.Z.Z.A.Z.V.N.m.m.N.V.Z.A.S.",
"z.z.z.z.z.x.c.v.b.n.b.v.z.l.l.x.b.m.M.N.N.M.n.v.z.h.p.9.<.-.,.w.z.D.P.P.J.D.A.C.B.N.m.n.v.c.x.x.x.c.c.c.v.v.c.x.z.l.l.z.c.v.v.b.",
"d.d.d.d.d.d.f.h.j.k.j.g.s.p.p.s.g.k.l.z.z.l.j.f.a.t.0.3.;.=.>.q.j.C.G.G.A.B.m.b.c.z.l.k.k.j.j.h.g.f.f.f.f.f.f.d.d.d.d.d.d.f.f.f.",
"a.a.a.a.a.a.s.d.f.f.d.p.y.r.r.y.p.d.g.h.h.h.f.a.y.q.6.<.-.*.>.0.h.B.S.S.V.n.c.z.k.h.g.g.g.g.f.d.s.a.p.p.a.a.a.a.p.i.i.i.i.i.i.i.",
"f.f.f.f.f.f.d.d.d.s.p.u.r.w.w.e.y.p.s.f.h.j.g.s.y.w.7.1.-.=.,.q.j.B.S.Z.M.c.l.j.h.g.f.f.g.g.f.d.s.a.a.a.s.d.d.s.p.i.u.u.u.u.u.u.",
"k.k.k.k.k.k.j.g.d.a.i.y.e.w.q.e.t.i.a.f.j.l.k.g.p.r.9.2.:.-.,.w.k.V.S.Z.m.z.j.h.g.g.g.g.g.g.g.f.d.s.d.f.h.j.j.g.s.p.u.u.u.u.u.u.",
"c.c.c.c.c.c.z.k.f.a.i.y.r.e.e.r.y.i.s.g.l.x.z.j.s.y.q.4.>.;.<.e.l.C.D.Z.m.l.h.g.g.g.g.g.g.g.g.f.f.f.g.j.l.x.z.j.f.a.i.u.i.i.i.i.",
"v.v.v.v.v.v.x.k.g.s.i.u.y.t.y.y.i.p.d.h.l.x.z.j.s.y.q.4.>.;.1.e.z.Z.F.A.m.z.h.f.f.f.d.d.d.d.f.f.f.g.h.k.z.c.x.k.g.s.p.i.i.i.i.i.",
"x.x.x.c.c.x.z.k.g.d.a.a.p.a.a.s.d.f.g.j.l.z.l.g.a.t.0.3.:.;.1.r.z.A.H.D.B.c.j.g.d.a.p.p.p.p.a.s.d.g.h.k.z.x.z.k.g.d.a.p.p.i.i.i.",
"l.l.l.l.l.l.k.j.g.f.d.f.g.h.j.j.k.k.k.l.l.l.h.d.u.e.8.2.;.-.1.r.x.S.J.G.C.b.l.g.s.i.y.t.t.y.u.p.s.f.h.j.k.k.k.j.g.f.s.a.p.p.i.i.",
"h.h.h.h.h.h.h.g.g.f.g.j.l.z.x.c.c.c.x.z.l.j.f.p.t.0.6.<.-.-.<.r.c.D.K.H.Z.m.z.g.a.y.r.e.e.r.t.u.a.f.g.h.h.h.h.h.g.f.d.s.a.p.i.i.",
"f.f.f.f.f.f.f.f.f.f.g.k.z.v.b.n.n.b.v.x.k.g.s.u.e.9.4.,.-.=.<.r.x.D.K.H.Z.n.z.g.p.y.r.e.e.r.t.u.a.d.f.g.f.f.f.f.f.f.d.s.a.p.i.i.",
"s.s.s.s.s.s.s.s.s.d.g.j.x.b.n.m.m.n.v.x.k.f.a.t.q.7.3.>.=.*.,.e.z.A.H.D.B.c.j.d.p.u.y.t.t.y.u.i.p.s.s.d.d.d.d.d.d.d.s.a.p.p.i.i.",
"a.a.a.a.a.a.a.a.a.a.d.h.z.v.n.m.m.n.v.z.j.d.i.r.0.6.2.:.*.*.>.w.l.C.D.Z.n.k.f.s.a.p.p.p.p.p.p.p.a.a.a.a.a.a.a.a.a.a.a.p.p.i.i.i.",
"p.p.p.p.p.p.p.i.i.p.s.g.l.c.b.n.n.b.c.l.h.s.u.e.9.5.1.;.&.&.>.q.j.B.A.V.c.g.s.a.s.d.d.f.f.d.d.s.a.p.p.p.p.p.p.p.p.p.p.p.i.i.i.i.",
"p.p.p.p.p.p.p.i.i.i.a.f.j.z.c.v.v.c.z.j.f.p.t.q.8.4.<.;.&.&.>.q.j.N.Z.B.c.g.s.s.f.g.h.h.h.g.f.f.d.s.a.p.p.i.i.p.p.a.a.p.i.i.u.u.",
"s.s.s.s.s.s.a.p.p.p.a.d.g.j.l.z.z.l.j.g.s.u.r.0.7.3.<.;.*.*.,.q.j.N.Z.V.b.k.g.h.j.k.l.k.j.h.h.h.g.g.f.d.a.p.p.a.d.f.f.s.p.u.y.y.",
"d.d.d.f.f.d.d.s.a.p.p.a.d.f.g.g.g.g.f.s.i.t.w.9.6.3.<.;.=.=.<.w.j.N.A.C.m.c.z.z.z.x.x.l.k.j.h.j.k.l.k.g.d.a.a.d.h.k.j.f.a.y.t.r.",
"f.f.f.f.f.f.d.s.a.p.i.i.p.a.a.a.a.a.p.i.y.r.q.9.6.3.1.:.-.-.<.w.j.N.A.Z.N.b.c.c.c.v.c.z.k.h.h.k.z.x.z.j.d.a.a.f.j.z.l.g.p.t.e.w.",
"s.s.s.s.s.s.a.p.i.u.y.y.y.u.u.u.y.y.y.t.r.e.q.9.7.5.3.,.;.;.1.w.h.M.Z.C.m.c.x.x.x.x.x.l.h.g.f.h.k.l.l.h.s.i.i.s.h.k.j.d.u.e.q.0.",
"y.y.y.y.u.y.y.t.r.e.e.e.e.r.r.e.e.w.w.w.e.e.w.q.0.9.6.2.>.:.1.w.h.m.V.N.c.j.g.h.j.k.k.h.f.s.a.s.f.g.f.s.i.y.y.u.a.s.s.u.r.0.9.8.",
"q.q.q.q.q.q.0.0.9.9.9.9.0.q.q.0.9.9.9.0.q.e.e.r.e.w.0.5.<.>.1.q.g.n.M.b.j.a.u.i.a.d.d.s.p.u.u.u.u.u.u.t.r.w.w.e.e.r.e.q.9.7.6.5.",
"5.5.5.5.5.5.5.5.4.4.5.6.7.8.8.7.6.5.6.8.0.w.e.r.t.r.w.7.1.>.1.0.s.x.v.k.p.e.0.q.r.u.u.u.t.e.w.w.q.q.0.0.9.9.8.8.7.6.6.5.4.4.3.3.",
"1.1.1.1.1.1.1.1.1.1.1.2.4.4.4.4.3.2.3.4.7.9.q.w.e.e.0.5.<.:.,.7.u.g.h.a.e.7.5.6.9.w.e.w.q.9.8.7.6.6.5.5.5.5.4.3.2.1.1.<.<.<.<.<.",
">.>.>.>.>.>.>.>.>.>.>.,.<.<.<.<.,.,.,.1.2.4.5.6.7.7.5.1.:.-.:.2.9.r.t.q.6.1.<.1.4.6.7.6.5.4.3.2.1.1.<.<.<.<.<.,.>.:.;.;.:.:.:.:.",
";.;.;.;.;.;.;.-.-.-.-.;.;.:.:.;.;.;.;.:.>.,.<.<.<.<.,.:.=.*.=.:.1.4.4.2.,.:.;.:.,.1.2.1.<.,.,.>.:.:.:.;.;.;.-.-.=.=.=.=.=.=.=.=.",
"=.=.=.=.=.=.=.=.=.*.*.=.=.=.=.=.=.=.=.=.=.-.-.-.=.=.*.&.&.%.%.*.=.-.;.-.=.*.*.-.;.:.:.:.;.;.-.-.=.=.=.*.*.&.&.&.&.&.&.%.&.&.&.&.",
"*.*.*.*.*.*.*.*.&.&.&.&.&.&.&.&.&.&.&.&.&.&.&.%.%.$.$.$.$.$.$.$.$.$.$.$.%.%.&.*.=.-.-.-.=.*.*.*.&.&.&.%.%.$.$.$.$.$.$.$.$.$.$.$.",
"&.&.*.*.*.&.&.&.&.&.%.%.%.%.%.%.%.%.%.%.%.%.%.$.#.#.#.#.#.$.#.#.@.@.@.@.#.$.%.&.*.*.=.*.*.&.&.&.%.%.%.$.$.#.#.#.#.#.#.#.#.#.#.#."
};
